static/assets/template/assets/img/icons/clothing/underpants.svg

<svg viewBox="0 0 115.54 80" xmlns="http://www.w3.org/2000/svg"><path d="m108.1 20h-27.93a32.48 32.48 0 0 0 -2.29 12c0 9.51 4 18.15 10.51 23.33a89.33 89.33 0 0 1 23.16-9.33zm-.53-14a2 2 0 0 0 -2-2h-95.57a2 2 0 0 0 -2 2v10l-.3 2h100.13l-.26-2zm-80.41 49.39c6.55-5.18 10.52-13.83 10.52-23.34a32.48 32.48 0 0 0 -2.29-12h-28l-3.39 25.95a89.28 89.28 0 0 1 23.16 9.39zm18.65 20.61h23.91c2.86-8.5 9.61-14.87 16.88-19.51-6.66-5.63-10.7-14.69-10.7-24.44a34.69 34.69 0 0 1 2.16-12h-40.56a34.69 34.69 0 0 1 2.16 12c0 9.75-4 18.82-10.71 24.45 7.26 4.64 14.05 11.01 16.86 19.5zm66.61-26.1c-.32.08-32.22 7.43-38.93 27.38a4 4 0 0 1 -3.77 2.72h-23.91a4 4 0 0 1 -3.81-2.72c-6.65-19.89-38.57-27.28-38.89-27.38a4 4 0 0 1 -3.11-4.43l4-29.74v-9.73a6 6 0 0 1 6-6h95.61a6 6 0 0 1 6 6v9.73l4 29.74a4 4 0 0 1 -3.19 4.43z" fill-rule="evenodd"/></svg>

<svg xmlns="http://www.w3.org/2000/svg" viewBox="0 0 115.54 80"><defs><style>.cls-1{fill-rule:evenodd;}</style></defs><title>underpants</title><g id="Layer_2" data-name="Layer 2"><g id="Layer"><path class="cls-1" d="M108.1,20H80.17a32.48,32.48,0,0,0-2.29,12c0,9.51,4,18.15,10.51,23.33A89.33,89.33,0,0,1,111.55,46Zm-.53-14a2,2,0,0,0-2-2H10A2,2,0,0,0,8,6V16L7.7,18H107.83l-.26-2ZM27.16,55.39c6.55-5.18,10.52-13.83,10.52-23.34a32.48,32.48,0,0,0-2.29-12h-28L4,46A89.28,89.28,0,0,1,27.16,55.39ZM45.81,76H69.72c2.86-8.5,9.61-14.87,16.88-19.51C79.94,50.86,75.9,41.8,75.9,32.05a34.69,34.69,0,0,1,2.16-12H37.5a34.69,34.69,0,0,1,2.16,12c0,9.75-4,18.82-10.71,24.45C36.21,61.14,43,67.51,45.81,76Zm66.61-26.1c-.32.08-32.22,7.43-38.93,27.38A4,4,0,0,1,69.72,80H45.81A4,4,0,0,1,42,77.28C35.35,57.39,3.43,50,3.11,49.9A4,4,0,0,1,0,45.47L4,15.73V6a6,6,0,0,1,6-6h95.61a6,6,0,0,1,6,6v9.73l4,29.74A4,4,0,0,1,112.42,49.9Z"/></g></g></svg>
